svg/u1f1ee.svg

<svg viewBox="0 0 128 128" xmlns="http://www.w3.org/2000/svg">
  <path d="m76.32 16.27h-24.64c-1.29 0-2.33 1.05-2.33 2.33v99.96c0 1.29 1.04 2.33 2.33 2.33h24.64c1.29 0 2.33-1.04 2.33-2.33v-99.96c0-1.28-1.04-2.33-2.33-2.33z" fill="#40C0E7"/>
</svg>

<svg viewBox="0 0 128 128" xmlns="http://www.w3.org/2000/svg">
  <defs/>
  <path d="M76.32,16.27 L51.68,16.27 C50.39,16.27 49.35,17.32 49.35,18.6 L49.35,118.56 C49.35,119.85 50.39,120.89 51.68,120.89 L76.32,120.89 C77.61,120.89 78.65,119.85 78.65,118.56 L78.65,18.6 C78.65,17.32 77.61,16.27 76.32,16.27 Z" fill="#40C0E7"/>
</svg>
